style/elvis/src/icons/svg/src/phone-action-question.svg

<svg width="24" height="25" viewBox="0 0 24 25" fill="none" xmlns="http://www.w3.org/2000/svg">
<path d="M4.983 24.0276C3.063 24.0276 1.501 22.4648 1.5 20.5436V4.98871C1.5 3.0655 3.062 1.50171 4.983 1.50171H7.5C7.914 1.50171 8.25 1.8381 8.25 2.25257C8.25 2.66705 7.914 3.00343 7.5 3.00343H4.983C3.89 3.00343 3 3.89446 3 4.98871V18.0207H13.5V15.7681C13.5 15.3536 13.836 15.0172 14.25 15.0172C14.664 15.0172 15 15.3536 15 15.7681V20.5416C15 22.4638 13.438 24.0276 11.518 24.0276H4.983ZM3 20.5416C3 21.6358 3.89 22.5258 4.982 22.5258H11.517C12.61 22.5258 13.5 21.6358 13.5 20.5416V19.5224H3V20.5416Z" fill="black"/>
<path d="M15.75 13.5172C12.028 13.5172 9 10.4857 9 6.75947C9 3.03319 12.028 0.00170898 15.75 0.00170898C19.472 0.00170898 22.5 3.03319 22.5 6.75947C22.5 10.4857 19.472 13.5172 15.75 13.5172ZM15.75 1.50343C12.855 1.50343 10.5 3.86114 10.5 6.75947C10.5 9.6578 12.855 12.0155 15.75 12.0155C18.645 12.0155 21 9.6578 21 6.75947C21 3.86114 18.645 1.50343 15.75 1.50343Z" fill="black"/>
<path d="M15.75 8.26119C15.336 8.26119 15 7.92481 15 7.51033C15 7.09585 15.336 6.75947 15.75 6.75947C16.37 6.75947 16.875 6.25389 16.875 5.63318C16.875 5.01246 16.37 4.50688 15.75 4.50688C15.13 4.50688 14.625 5.01246 14.625 5.63318C14.625 6.04765 14.289 6.38404 13.875 6.38404C13.461 6.38404 13.125 6.04765 13.125 5.63318C13.125 4.18451 14.302 3.00516 15.75 3.00516C17.198 3.00516 18.375 4.18451 18.375 5.63318C18.375 7.08184 17.198 8.26119 15.75 8.26119Z" fill="black"/>
<path d="M15.75 11.2646C15.13 11.2646 14.625 10.7591 14.625 10.1383C14.625 9.53966 15.094 9.04709 15.692 9.01606C15.691 9.01606 15.695 9.01606 15.696 9.01606C15.706 9.01506 15.712 9.01406 15.722 9.01306C15.722 9.01306 15.712 9.01306 15.703 9.01406C15.719 9.01306 15.736 9.01205 15.75 9.01205C16.37 9.01205 16.875 9.51763 16.875 10.1383C16.875 10.7591 16.37 11.2646 15.75 11.2646Z" fill="black"/>
</svg>

<svg width="24" height="25" fill="none" xmlns="http://www.w3.org/2000/svg"><path d="M4.983 24.028A3.488 3.488 0 011.5 20.544V4.989a3.488 3.488 0 013.483-3.487H7.5a.75.75 0 010 1.501H4.983A1.987 1.987 0 003 4.99v13.03h10.5v-2.253a.75.75 0 111.5 0v4.774a3.488 3.488 0 01-3.482 3.486H4.983zM3 20.542c0 1.094.89 1.984 1.982 1.984h6.535c1.093 0 1.983-.89 1.983-1.984v-1.02H3v1.02z" fill="#1B314B"/><path d="M15.75 13.517C12.028 13.517 9 10.486 9 6.76 9 3.033 12.028.002 15.75.002s6.75 3.031 6.75 6.757c0 3.727-3.028 6.758-6.75 6.758zm0-12.014A5.259 5.259 0 0010.5 6.76a5.259 5.259 0 005.25 5.256A5.259 5.259 0 0021 6.76a5.259 5.259 0 00-5.25-5.256z" fill="#1B314B"/><path d="M15.75 8.261a.75.75 0 010-1.502 1.127 1.127 0 000-2.252c-.62 0-1.125.505-1.125 1.126a.75.75 0 11-1.5 0 2.63 2.63 0 012.625-2.628 2.63 2.63 0 012.625 2.628 2.63 2.63 0 01-2.625 2.628zm0 3.004a1.125 1.125 0 11-.058-2.249h.004c.01 0 .016-.002.026-.003l-.019.001a1.127 1.127 0 01.047 2.25z" fill="#1B314B"/></svg>
